; HEADER_BLOCK_START
; generated by OrcaSlicer 1.8.0-beta1 on 2025-02-14 at 15:21:17
; total layer number: 47
; HEADER_BLOCK_END


;
;
; external perimeters extrusion width = 0.40mm
; perimeters extrusion width = 0.45mm
; infill extrusion width = 0.45mm
; solid infill extrusion width = 0.40mm
; top infill extrusion width = 0.40mm
; support material extrusion width = 0.40mm
; first layer extrusion width = 0.48mm

; external perimeters extrusion width = 0.40mm
; perimeters extrusion width = 0.45mm
; infill extrusion width = 0.45mm
; solid infill extrusion width = 0.40mm
; top infill extrusion width = 0.40mm
; support material extrusion width = 0.40mm
; first layer extrusion width = 0.48mm

; EXECUTABLE_BLOCK_START
EXCLUDE_OBJECT_DEFINE NAME=LowerLeg_MoldStub_solid.STL_id_0_copy_0 CENTER=160,160 POLYGON=[[85.7555,212.875],[86.0169,211.582],[86.0665,211.337],[86.324,210.063],[86.6266,208.566],[86.6275,208.561],[120.506,177.799],[122.048,176.426],[123.661,175.047],[125.301,173.703],[126.96,172.401],[128.659,171.125],[130.297,169.948],[132.042,168.744],[231.477,102.784],[231.526,102.754],[231.577,102.728],[231.629,102.704],[231.682,102.684],[231.736,102.666],[231.792,102.652],[231.848,102.641],[231.904,102.633],[231.961,102.628],[232.019,102.627],[232.076,102.629],[232.133,102.634],[232.189,102.642],[232.245,102.654],[232.265,102.658],[232.497,102.723],[232.724,102.803],[232.724,102.803],[232.945,102.897],[233.124,103.057],[233.124,103.057],[233.293,103.229],[233.449,103.411],[233.593,103.604],[233.724,103.805],[233.842,104.015],[233.945,104.232],[234.033,104.455],[234.107,104.684],[234.165,104.918],[234.207,105.154],[234.234,105.393],[234.244,105.633],[234.239,105.874],[234.218,106.113],[234.146,106.324],[234.061,106.53],[227.342,120.702],[214.689,132.251],[213.021,133.734],[212.387,134.284],[211.495,135.044],[209.973,136.298],[209.146,136.957],[208.303,137.614],[207.469,138.249],[206.621,138.879],[205.783,139.488],[204.931,140.091],[125.251,195.99],[124.36,196.608],[123.429,197.24],[121.387,198.587],[120.504,199.156],[119.029,200.093],[115.963,202.009],[115.255,202.448],[106.82,207.675],[103.091,209.974],[100.61,211.472],[95.0344,214.756],[88.188,217.373],[85.7555,212.875]]
EXCLUDE_OBJECT_DEFINE NAME=LowerLeg_MoldStub_solid.STL_id_1_copy_0 CENTER=149.489,115.747 POLYGON=[[75.2445,168.622],[75.5059,167.329],[75.5554,167.083],[75.8129,165.81],[76.1156,164.312],[76.1165,164.308],[109.995,133.545],[111.537,132.173],[113.15,130.793],[114.79,129.45],[116.449,128.148],[118.148,126.872],[119.786,125.694],[121.531,124.491],[220.966,58.5302],[221.015,58.5009],[221.066,58.4744],[221.118,58.4508],[221.171,58.4303],[221.225,58.4128],[221.281,58.3985],[221.337,58.3873],[221.393,58.3794],[221.45,58.3747],[221.507,58.3733],[221.565,58.3752],[221.622,58.3803],[221.678,58.3887],[221.734,58.4002],[221.754,58.4051],[221.986,58.4695],[222.213,58.5492],[222.213,58.5494],[222.434,58.6438],[222.613,58.8034],[222.613,58.8038],[222.781,58.9754],[222.938,59.1578],[223.082,59.3502],[223.213,59.5517],[223.33,59.7615],[223.434,59.9786],[223.522,60.2021],[223.596,60.431],[223.654,60.6642],[223.696,60.9008],[223.723,61.1397],[223.733,61.3799],[223.728,61.6202],[223.707,61.8596],[223.635,62.0705],[223.55,62.2768],[216.831,76.4485],[204.178,87.9977],[202.51,89.4809],[201.876,90.0305],[200.984,90.7905],[199.462,92.0444],[198.634,92.7041],[197.792,93.3605],[196.958,93.9953],[196.11,94.6258],[195.272,95.2346],[194.42,95.8381],[114.74,151.737],[113.849,152.355],[112.918,152.986],[110.876,154.334],[109.993,154.903],[108.518,155.839],[105.452,157.756],[104.744,158.195],[96.3085,163.421],[92.5802,165.72],[90.0992,167.218],[84.5234,170.502],[77.677,173.12],[75.2445,168.622]]
M73 P0 R49
;TYPE:Custom
M190 S60
M109 S215
PRINT_START EXTRUDER=215 BED=60
G90
G21
M83 ; use relative distances for extrusion
; filament start gcode
M106 S0
;LAYER_CHANGE
;Z:0.218
;HEIGHT:0.218
;BEFORE_LAYER_CHANGE
;0.218
G92 E0

G1 E-.4 F1800
;AFTER_LAYER_CHANGE
;0.218
;_SET_FAN_SPEED_CHANGING_LAYER
SET_VELOCITY_LIMIT ACCEL=500 ACCEL_TO_DECEL=250
G1 Z.4 F16200
G1 X104.334 Y122.195
G1 Z.4
G1 Z.218
G1 E.4 F1800
;TYPE:Skirt
;WIDTH:0.48
G1 F3000
G1 X105.395 Y121.289 E.05368
G1 X108.984 Y118.415 E.17695
G1 X114.665 Y114.326 E.26933
G1 X121.349 Y110.062 E.30506
G1 X216.349 Y53.089 E4.26247
G1 X217.703 Y52.42 E.0581
G1 X219.028 Y51.996 E.05353
G1 X220.208 Y51.783 E.04614
G1 X221.802 Y51.724 E.06139
G1 X223.153 Y51.875 E.05231
G1 X224.673 Y52.277 E.0605
G1 X225.917 Y52.81 E.0521
G1 X227.261 Y53.637 E.06069
G1 X228.305 Y54.515 E.05251
G1 X229.368 Y55.723 E.06189
G1 X230.116 Y56.893 E.05346
G1 X230.631 Y58.001 E.04701
G1 X231.039 Y59.313 E.05286
G1 X241.615 Y103.866 E1.76198
G1 X241.79 Y105.287 E.05512
G1 X241.717 Y107.01 E.06634
G1 X239.078 Y122.623 E.60929
G1 X238.617 Y124.213 E.06371
G1 X237.968 Y125.736 E.06371
G1 X237.198 Y127.089 E.05988
G1 X236.443 Y128.14 E.04982
G1 X234.836 Y129.875 E.09098
G1 X220.893 Y142.563 E.72542
G1 X215.645 Y146.889 E.26166
G1 X211.85 Y149.686 E.18142
G1 X130.03 Y207.055 E3.84512
G1 X95.911 Y229.047 E1.56197
G1 X94.258 Y229.978 E.073
G1 X92.684 Y230.614 E.06531
G1 X91.786 Y230.882 E.03605
G1 X89.422 Y231.306 E.09245
G1 X87.767 Y231.358 E.06371
G1 X85.299 Y231.062 E.09565
G1 X82.931 Y230.332 E.09535
G1 X81.391 Y229.583 E.0659
G1 X79.288 Y228.15 E.0979
G1 X77.517 Y226.417 E.09535
G1 X76.082 Y224.389 E.09561
G1 X73.258 Y219.166 E.22847
G1 X72.346 Y216.853 E.09565
G1 X61.624 Y171.79 E1.78241
G1 X61.353 Y170.21 E.06167
G1 X61.257 Y168.557 E.06371
G1 X61.353 Y166.948 E.06203
G1 X61.82 Y164.384 E.10029
G1 X62.387 Y162.395 E.07956
G1 X63.001 Y160.96 E.06005
G1 X63.629 Y159.832 E.04968
G1 X64.574 Y158.473 E.06371
G1 X66.141 Y156.785 E.08862
G1 X103.478 Y122.926 E1.93946
G1 X104.303 Y122.221 E.04176
G1 X104.584 Y122.551 F16200
G1 F3000
G1 X105.669 Y121.625 E.05487
G1 X109.251 Y118.756 E.1766
G1 X114.911 Y114.683 E.26831
G1 X121.572 Y110.434 E.30401
G1 X216.572 Y53.461 E4.26247
G1 X217.861 Y52.824 E.05531
G1 X219.134 Y52.416 E.05147
G1 X220.262 Y52.213 E.04411
G1 X221.779 Y52.157 E.0584
G1 X223.079 Y52.302 E.05034
G1 X224.526 Y52.685 E.05758
G1 X225.724 Y53.198 E.05015
G1 X227.002 Y53.984 E.05775
G1 X228.007 Y54.829 E.05053
G1 X229.018 Y55.978 E.05887
G1 X229.738 Y57.103 E.0514
G1 X230.229 Y58.162 E.04492
G1 X230.618 Y59.413 E.05039
G1 X241.222 Y104.122 E1.76808
G1 X241.368 Y105.738 E.06246
G1 X241.288 Y106.948 E.04666
G1 X238.659 Y122.514 E.60745
G1 X238.213 Y124.055 E.06171
G1 X237.586 Y125.531 E.06171
G1 X236.84 Y126.844 E.05812
G1 X236.11 Y127.863 E.04823
G1 X234.544 Y129.555 E.0887
G1 X220.605 Y142.24 E.7252
G1 X215.377 Y146.548 E.26068
G1 X211.597 Y149.334 E.18068
G1 X129.785 Y206.697 E3.84474
G1 X95.676 Y228.682 E1.56149
G1 X94.082 Y229.581 E.07042
G1 X92.56 Y230.199 E.06321
G1 X91.663 Y230.467 E.03605
G1 X89.395 Y230.874 E.08864
G1 X87.792 Y230.925 E.06171
G1 X85.376 Y230.636 E.09365
G1 X83.107 Y229.936 E.09135
G1 X81.616 Y229.213 E.06376
G1 X79.552 Y227.807 E.09612
G1 X77.855 Y226.146 E.09135
G1 X76.45 Y224.16 E.09361
G1 X73.65 Y218.983 E.22647
G1 X72.758 Y216.719 E.09365
G1 X62.049 Y171.706 E1.78038
G1 X61.785 Y170.172 E.05992
G1 X61.69 Y168.571 E.06171
G1 X61.781 Y167.011 E.06014
G1 X62.245 Y164.469 E.0994
G1 X62.789 Y162.556 E.07656
G1 X63.384 Y161.163 E.05828
G1 X63.992 Y160.069 E.04816
G1 X64.906 Y158.751 E.06171
G1 X66.432 Y157.106 E.08635
G1 X103.766 Y123.25 E1.93929
G1 X104.554 Y122.577 E.03988
; printing object LowerLeg_MoldStub_solid.STL id:0 copy 0
G1 E-.28 F1800
;WIPE_START
G1 F3000
G1 X105.314 Y121.927 E-.12
;WIPE_END
EXCLUDE_OBJECT_START NAME=LowerLeg_MoldStub_solid.STL_id_0_copy_0
M73 P0 R48
G1 Z.618 F16200
G1 X223.384 Y115.115 Z.618
G1 Z.218
G1 E.4 F1800
;TYPE:Support
G1 F3000
G1 X223.58 Y114.949 E.00989
G1 X223.687 Y114.887 E.00474
G1 X223.832 Y114.846 E.00579
G1 X224.01 Y114.84 E.00686
G1 X224.155 Y114.867 E.0057
G1 X224.301 Y114.921 E.00599
G1 X224.74 Y115.205 E.02011
G1 X225.382 Y115.411 E.02593
G1 X225.909 Y115.438 E.02033
G1 X226.022 Y115.486 E.00473
G1 X226.137 Y115.575 E.00559
G1 X226.242 Y115.712 E.00663
G1 X226.304 Y115.844 E.00563
G1 X226.353 Y116.05 E.00814
G1 X226.357 Y116.215 E.00636
G1 X226.332 Y116.379 E.00636
G1 X226.281 Y116.53 E.00615
G1 X226.208 Y116.661 E.00577
G1 X226.072 Y116.831 E.0084
G1 X223.418 Y115.136 E.12117
G1 X223.036 Y115.046 F16200
G1 F3000
G1 X223.058 Y114.951 E.00375
G1 X223.16 Y114.765 E.00817
G1 X223.269 Y114.645 E.00626
G1 X223.46 Y114.514 E.00887
G1 X223.635 Y114.446 E.00723
G1 X223.833 Y114.409 E.00777
G1 X224.048 Y114.409 E.00828
G1 X224.27 Y114.449 E.00867
G1 X224.416 Y114.499 E.00594
G1 X224.624 Y114.606 E.009
G1 X224.931 Y114.811 E.0142
G1 X225.456 Y114.98 E.02121
G1 X225.854 Y114.991 E.01532
G1 X226.078 Y115.036 E.00882
G1 X226.294 Y115.145 E.0093
G1 X226.491 Y115.319 E.0101
G1 X226.651 Y115.556 E.01101
G1 X226.736 Y115.768 E.0088
G1 X226.783 Y116.001 E.00913
G1 X226.79 Y116.242 E.0093
G1 X226.753 Y116.481 E.00929
G1 X226.677 Y116.706 E.00912
G1 X226.566 Y116.905 E.00878
G1 X226.378 Y117.12 E.01098
G1 X226.218 Y117.237 E.00765
G1 X226.039 Y117.325 E.00766
G1 X223.01 Y115.39 E.13829
G1 X223.007 Y115.165 E.00867
G1 X223.026 Y115.085 E.00316
G1 X222.612 Y114.957 F16200
G1 F3000
G1 X222.686 Y114.72 E.00956
G1 X222.863 Y114.443 E.01265
G1 X223.113 Y114.217 E.01295
G1 X223.428 Y114.057 E.01359
G1 X223.793 Y113.977 E.01439
G1 X224.087 Y113.977 E.01131
G1 X224.385 Y114.031 E.01165
G1 X224.58 Y114.097 E.0079
G1 X224.855 Y114.239 E.01193
G1 X225.121 Y114.417 E.01233
G1 X225.53 Y114.548 E.0165
G1 X225.967 Y114.567 E.01683
G1 X226.301 Y114.658 E.01334
G1 X226.537 Y114.786 E.01032
G1 X226.683 Y114.899 E.0071
G1 X226.816 Y115.033 E.00729
G1 X226.935 Y115.187 E.00749
G1 X227.037 Y115.359 E.00767
G1 X227.118 Y115.546 E.00784
G1 X227.199 Y115.847 E.01201
G1 X227.226 Y116.163 E.0122
G1 X227.197 Y116.48 E.01226
G1 X227.113 Y116.785 E.01215
G1 X226.979 Y117.064 E.0119
G1 X226.803 Y117.307 E.01155
G1 X226.666 Y117.444 E.00747
G1 X226.517 Y117.56 E.00728
G1 X226.276 Y117.692 E.01055
G1 X225.959 Y117.787 E.01275
G1 X222.631 Y115.662 E.15196
G1 X222.576 Y115.383 E.01095
G1 X222.588 Y115.037 E.0133
G1 X222.6 Y114.995 E.00168
G1 X222.171 Y114.923 F16200
G1 F3000
G1 X222.183 Y114.854 E.00268
G1 X222.249 Y114.64 E.00863
G1 X222.343 Y114.438 E.00858
G1 X222.463 Y114.25 E.00858
G1 X222.608 Y114.079 E.00862
G1 X222.776 Y113.928 E.0087
G1 X222.965 Y113.798 E.00882
G1 X223.172 Y113.692 E.00896
G1 X223.396 Y113.613 E.00913
G1 X223.632 Y113.561 E.00929
G1 X223.877 Y113.538 E.00946
G1 X224.126 Y113.545 E.00961
G1 X224.5 Y113.613 E.01463
G1 X224.743 Y113.696 E.00987
G1 X224.975 Y113.807 E.00991
G1 X225.312 Y114.024 E.01541
G1 X225.604 Y114.117 E.01179
G1 X225.908 Y114.126 E.01172
G1 X226.137 Y114.156 E.00886
G1 X226.36 Y114.217 E.00891
G1 X226.576 Y114.307 E.00899
G1 X226.877 Y114.497 E.0137
G1 X227.058 Y114.658 E.00933
G1 X227.221 Y114.843 E.00948
G1 X227.361 Y115.05 E.00964
G1 X227.477 Y115.277 E.00979
G1 X227.566 Y115.519 E.00992
G1 X227.645 Y115.902 E.01506
G1 X227.655 Y116.297 E.01518
G1 X227.596 Y116.686 E.01517
G1 X227.47 Y117.057 E.01505
G1 X227.283 Y117.393 E.01481
G1 X227.043 Y117.684 E.01449
G1 X226.859 Y117.847 E.00947
G1 X226.659 Y117.983 E.00931
G1 X226.446 Y118.091 E.00917
G1 X226.225 Y118.169 E.00904
G1 X225.85 Y118.232 E.01464
G1 X222.274 Y115.948 E.16325
G1 X222.212 Y115.772 E.00717
G1 X222.159 Y115.54 E.00916
G1 X222.137 Y115.308 E.00899
G1 X222.145 Y115.078 E.00885
G1 X222.164 Y114.962 E.0045
G1 X221.738 Y114.891 F16200
G1 F3000
G1 X221.761 Y114.754 E.00533
G1 X221.844 Y114.484 E.01086
G1 X221.963 Y114.229 E.01083
G1 X222.114 Y113.992 E.01082
G1 X222.297 Y113.777 E.01085
G1 X222.508 Y113.587 E.01092
G1 X222.743 Y113.425 E.01101
G1 X223.001 Y113.294 E.01112
G1 X223.276 Y113.196 E.01125
G1 X223.565 Y113.132 E.01138
G1 X223.863 Y113.105 E.01151
G1 X224.165 Y113.114 E.01162
G1 X224.615 Y113.195 E.0176
G1 X224.906 Y113.294 E.01183
G1 X225.184 Y113.427 E.01186
G1 X225.503 Y113.63 E.01452
G1 X225.678 Y113.686 E.00707
G1 X225.936 Y113.694 E.00993
G1 X226.222 Y113.731 E.0111
G1 X226.501 Y113.807 E.01114
G1 X226.769 Y113.92 E.0112
G1 X227.142 Y114.154 E.01696
G1 X227.365 Y114.352 E.01146
G1 X227.653 Y114.701 E.0174
G1 X227.808 Y114.964 E.01177
G1 X227.932 Y115.247 E.01187
G1 X228.021 Y115.545 E.01197
G1 X228.089 Y116.009 E.01806
G1 X228.073 Y116.48 E.01812
G1 X227.975 Y116.94 E.01809
G1 X227.799 Y117.372 E.01796
G1 X227.551 Y117.761 E.01775
G1 X227.241 Y118.093 E.01748
G1 X227.005 Y118.277 E.01151
G1 X226.75 Y118.427 E.01139
G1 X226.48 Y118.543 E.01128
G1 X226.2 Y118.621 E.0112
G1 X225.727 Y118.667 E.01828
G1 X221.93 Y116.242 E.17336
G1 X221.796 Y115.895 E.01434
G1 X221.731 Y115.609 E.01127
G1 X221.704 Y115.321 E.01114
G1 X221.714 Y115.034 E.01103
G1 X221.731 Y114.93 E.00406
G1 X221.305 Y114.858 F16200
G1 F3000
G1 X221.339 Y114.654 E.00798
G1 X221.44 Y114.329 E.0131
G1 X221.583 Y114.021 E.01307
G1 X221.766 Y113.735 E.01307
G1 X221.986 Y113.475 E.01309
G1 X222.239 Y113.247 E.01313
G1 X222.522 Y113.053 E.0132
G1 X222.83 Y112.896 E.01328
G1 X223.157 Y112.779 E.01337
G1 X223.499 Y112.704 E.01346
G1 X223.849 Y112.672 E.01356
G1 X224.204 Y112.682 E.01364
G1 X224.556 Y112.735 E.01372
G1 X224.901 Y112.83 E.01377
G1 X225.234 Y112.965 E.01381
G1 X225.693 Y113.236 E.02053
G1 X225.752 Y113.255 E.00236
G1 X226.136 Y113.278 E.0148
G1 X226.476 Y113.346 E.01335
G1 X226.805 Y113.459 E.01339
G1 X227.117 Y113.615 E.01344
G1 X227.408 Y113.812 E.01351
G1 X227.794 Y114.176 E.0204
G1 X228.012 Y114.458 E.01372
G1 X228.272 Y114.93 E.02073
G1 X228.443 Y115.445 E.0209
G1 X228.521 Y115.986 E.02101
G1 X228.52 Y116.351 E.01405
G1 X228.476 Y116.713 E.01405
G1 X228.331 Y117.24 E.02101
G1 X228.184 Y117.571 E.01395
G1 X227.999 Y117.881 E.01389
G1 X227.658 Y118.295 E.02066
G1 X227.249 Y118.635 E.02046
G1 X226.787 Y118.888 E.02027
G1 X226.457 Y119.004 E.01344
G1 X226.117 Y119.075 E.01338
G1 X225.771 Y119.099 E.01335
G1 X225.589 Y119.093 E.00698
G1 X221.723 Y116.624 E.17651
G1 X221.645 Y116.632 E.00304
G1 X221.5 Y116.346 E.01231
G1 X221.38 Y116.017 E.01348
G1 X221.303 Y115.678 E.01339
G1 X221.27 Y115.334 E.01329
G1 X221.282 Y114.991 E.01321
G1 X221.298 Y114.898 E.00363
G1 E-.28 F1800
;WIPE_START
G1 F3000
G1 X221.339 Y114.654 E-.02969
G1 X221.44 Y114.329 E-.04084
G1 X221.583 Y114.021 E-.04076
G1 X221.622 Y113.96 E-.00871
;WIPE_END
G1 Z.618 F16200
G1 X228.812 Y109.43 Z.618
G1 Z.218
G1 E.4 F1800
G1 F3000
G1 X228.757 Y109.336 E.00421
G1 X228.72 Y109.203 E.00532
G1 X228.714 Y109.041 E.00623
G1 X228.749 Y108.869 E.00676
G1 X228.875 Y108.565 E.01266
G1 X228.972 Y108.082 E.01894
G1 X228.969 Y107.788 E.01131
G1 X228.987 Y107.626 E.00631
G1 X229.034 Y107.464 E.00646
G1 X229.109 Y107.315 E.00641
G1 X229.204 Y107.187 E.00615
G1 X229.312 Y107.085 E.00572
G1 X229.425 Y107.013 E.00516
G1 X229.569 Y106.96 E.00591
G1 X230.262 Y106.829 E.02711
G1 X230.378 Y107.064 E.0101
G1 X230.288 Y107.146 E.00468
G1 X230.134 Y107.811 E.02626
G1 X230.078 Y107.969 E.00647
G1 X229.996 Y108.112 E.00635
G1 X229.811 Y108.337 E.0112
G1 X229.559 Y108.841 E.02168
G1 X229.497 Y109.1 E.01026
G1 X229.423 Y109.261 E.00679
G1 X229.293 Y109.416 E.00778
G1 X229.156 Y109.505 E.00631
G1 X229.021 Y109.537 E.00531
G1 X228.899 Y109.507 E.00487
G1 X228.842 Y109.457 E.00292
G1 X231.202 Y106.167 F16200
G1 F3000
G1 X231.5 Y105.372 E.03268
G1 X231.576 Y105.301 E.004
G1 X231.678 Y105.251 E.00438
G1 X231.817 Y105.22 E.00547
G1 X231.939 Y105.22 E.0047
G1 X232.193 Y105.287 E.01013
G1 X232.307 Y105.352 E.00505
G1 X232.428 Y105.46 E.00622
G1 X232.506 Y105.573 E.0053
G1 X232.548 Y105.698 E.00506
G1 X232.545 Y105.806 E.00416
G1 X232.504 Y105.89 E.00361
G1 X232.406 Y105.975 E.00497
G1 X232.261 Y106.03 E.00599
G1 X231.242 Y106.162 E.03952
G1 X231.588 Y106.555 F16200
G1 F3000
G1 X230.68 Y107.376 E.0471
G1 X230.554 Y107.921 E.02152
G1 X230.471 Y108.151 E.0094
G1 X230.351 Y108.36 E.00929
G1 X230.176 Y108.576 E.01072
G1 X229.97 Y108.989 E.01774
G1 X229.909 Y109.235 E.00975
G1 X229.827 Y109.427 E.00805
G1 X229.715 Y109.599 E.00788
G1 X229.58 Y109.741 E.00754
G1 X229.381 Y109.878 E.0093
G1 X229.128 Y109.962 E.01025
