; HEADER_BLOCK_START
; generated by OrcaSlicer 1.8.0-beta1 on 2025-01-11 at 16:22:53
; total layer number: 100
; HEADER_BLOCK_END


;
;
; external perimeters extrusion width = 0.40mm
; perimeters extrusion width = 0.45mm
; infill extrusion width = 0.45mm
; solid infill extrusion width = 0.40mm
; top infill extrusion width = 0.40mm
; support material extrusion width = 0.40mm
; first layer extrusion width = 0.48mm

; EXECUTABLE_BLOCK_START
EXCLUDE_OBJECT_DEFINE NAME=MoldPart1.STL_id_0_copy_0 CENTER=160,160 POLYGON=[[131.227,134.534],[131.234,134.329],[131.255,134.126],[131.29,133.924],[131.338,133.725],[131.4,133.529],[131.475,133.339],[131.563,133.154],[131.664,132.975],[131.776,132.804],[131.9,132.641],[132.034,132.486],[132.179,132.342],[132.334,132.207],[132.497,132.083],[132.668,131.971],[132.847,131.87],[133.032,131.782],[133.222,131.707],[133.418,131.645],[133.617,131.597],[133.818,131.562],[134.022,131.541],[134.227,131.534],[185.773,131.534],[185.978,131.541],[186.182,131.562],[186.383,131.597],[186.582,131.645],[186.778,131.707],[186.968,131.782],[187.153,131.87],[187.332,131.971],[187.503,132.083],[187.666,132.207],[187.821,132.342],[187.966,132.486],[188.1,132.641],[188.224,132.804],[188.336,132.975],[188.437,133.154],[188.525,133.339],[188.6,133.529],[188.662,133.725],[188.71,133.924],[188.745,134.126],[188.766,134.329],[188.773,134.534],[188.773,185.466],[188.766,185.671],[188.745,185.874],[188.71,186.076],[188.694,186.15],[188.692,186.157],[188.69,186.166],[188.687,186.177],[188.684,186.191],[188.682,186.2],[188.68,186.207],[188.678,186.216],[188.674,186.231],[188.671,186.241],[188.669,186.249],[188.667,186.255],[188.664,186.267],[188.662,186.275],[188.658,186.288],[188.654,186.304],[188.652,186.311],[188.646,186.328],[188.642,186.343],[188.638,186.356],[188.628,186.389],[188.615,186.428],[188.6,186.47],[188.597,186.478],[188.576,186.536],[188.525,186.661],[188.524,186.663],[188.472,186.776],[188.442,186.835],[188.437,186.846],[188.415,186.887],[188.389,186.935],[188.364,186.978],[188.349,187.004],[188.34,187.019],[188.336,187.025],[188.329,187.037],[188.315,187.058],[188.308,187.07],[188.29,187.098],[188.264,187.137],[188.248,187.161],[188.238,187.176],[188.224,187.196],[188.223,187.197],[188.208,187.218],[188.181,187.255],[188.153,187.292],[188.126,187.327],[188.1,187.359],[188.098,187.362],[188.081,187.382],[188.071,187.395],[188.041,187.43],[187.999,187.477],[187.978,187.501],[187.966,187.513],[187.966,187.514],[187.947,187.533],[187.939,187.542],[187.913,187.568],[187.907,187.575],[187.882,187.6],[187.878,187.603],[187.857,187.624],[187.854,187.627],[187.848,187.632],[187.84,187.64],[187.833,187.647],[187.825,187.654],[187.821,187.658],[187.818,187.661],[187.811,187.668],[187.804,187.674],[187.799,187.679],[187.794,187.683],[187.792,187.685],[187.789,187.687],[187.784,187.692],[187.78,187.695],[187.777,187.698],[187.774,187.701],[187.771,187.704],[187.769,187.705],[187.765,187.709],[187.762,187.712],[187.758,187.716],[187.753,187.719],[187.751,187.721],[187.749,187.723],[187.666,187.793],[187.503,187.917],[187.332,188.029],[187.153,188.13],[186.968,188.218],[186.778,188.293],[186.582,188.355],[186.383,188.403],[186.182,188.438],[185.978,188.459],[185.773,188.466],[134.227,188.466],[134.022,188.459],[133.818,188.438],[133.617,188.403],[133.418,188.355],[133.222,188.293],[133.032,188.218],[132.847,188.13],[132.668,188.029],[132.497,187.917],[132.334,187.793],[132.179,187.658],[132.034,187.514],[131.9,187.359],[131.776,187.196],[131.664,187.025],[131.563,186.846],[131.475,186.661],[131.4,186.471],[131.338,186.275],[131.29,186.076],[131.255,185.874],[131.234,185.671],[131.227,185.466],[131.227,134.534]]
M73 P0 R46
;TYPE:Custom
M190 S60
M109 S215
PRINT_START EXTRUDER=215 BED=60
G90
G21
M83 ; use relative distances for extrusion
; filament start gcode
M106 S0
;LAYER_CHANGE
;Z:0.218
;HEIGHT:0.218
;BEFORE_LAYER_CHANGE
;0.218
G92 E0

G1 E-.4 F1800
;AFTER_LAYER_CHANGE
;0.218
;_SET_FAN_SPEED_CHANGING_LAYER
SET_VELOCITY_LIMIT ACCEL=500 ACCEL_TO_DECEL=250
G1 Z.4 F16200
G1 X122.202 Y122.439
G1 Z.4
G1 Z.218
G1 E.4 F1800
;TYPE:Skirt
;WIDTH:0.48
G1 F3000
G1 X122.987 Y121.655 E.04266
G1 X124.705 Y120.34 E.08329
G1 X125.843 Y119.637 E.05145
G1 X127.794 Y118.699 E.08332
G1 X129.049 Y118.243 E.05138
G1 X131.151 Y117.721 E.08332
G1 X132.471 Y117.53 E.05132
G1 X134.217 Y117.436 E.0673
G1 X186.021 Y117.44 E1.99333
G1 X187.809 Y117.56 E.06897
G1 X189.356 Y117.82 E.06037
G1 X190.777 Y118.191 E.05648
G1 X191.952 Y118.596 E.04782
G1 X193.38 Y119.224 E.06004
G1 X194.747 Y119.985 E.0602
G1 X195.961 Y120.81 E.05648
G1 X196.932 Y121.585 E.04782
G1 X198.339 Y122.945 E.0753
G1 X199.283 Y124.064 E.05633
G1 X200.67 Y126.15 E.09637
G1 X201.238 Y127.254 E.04777
G1 X201.806 Y128.604 E.05635
G1 X202.357 Y130.39 E.07193
G1 X202.617 Y131.623 E.04847
G1 X202.777 Y132.779 E.04491
G1 X202.871 Y134.525 E.06729
G1 X202.839 Y186.442 E1.99768
G1 X202.683 Y187.975 E.05932
G1 X202.488 Y189.044 E.0418
G1 X202.204 Y190.18 E.04507
G1 X201.735 Y191.577 E.0567
G1 X200.676 Y193.838 E.09607
G1 X199.396 Y195.791 E.08984
G1 X198.609 Y196.752 E.04779
G1 X197.081 Y198.285 E.08331
G1 X195.481 Y199.537 E.07817
G1 X194.09 Y200.398 E.06294
G1 X192.05 Y201.366 E.08687
G1 X189.989 Y202.03 E.08332
G1 X187.994 Y202.415 E.0782
G1 X186.463 Y202.547 E.05913
G1 X133.251 Y202.532 E2.04754
G1 X131.717 Y202.376 E.05932
G1 X130.643 Y202.18 E.04201
G1 X129.511 Y201.897 E.04492
G1 X128.122 Y201.431 E.0564
G1 X125.937 Y200.415 E.09269
G1 X123.903 Y199.091 E.09339
G1 X122.265 Y197.675 E.08331
G1 X121.347 Y196.705 E.05137
G1 X120.2 Y195.235 E.07176
G1 X119.295 Y193.783 E.06584
G1 X118.327 Y191.743 E.08687
G1 X117.663 Y189.682 E.08332
G1 X117.278 Y187.687 E.07821
G1 X117.145 Y186.153 E.05923
G1 X117.161 Y133.558 E2.02379
G1 X117.317 Y132.024 E.05933
G1 X117.513 Y130.95 E.04201
G1 X117.884 Y129.53 E.05648
G1 X118.289 Y128.356 E.04782
G1 X119.278 Y126.243 E.08978
G1 X120.547 Y124.284 E.08978
G1 X121.39 Y123.249 E.05137
G1 X122.174 Y122.467 E.04263
G1 X122.45 Y122.759 F16200
G1 F3000
G1 X123.265 Y121.988 E.04317
G1 X124.956 Y120.693 E.08197
G1 X126.048 Y120.019 E.04935
G1 X127.968 Y119.095 E.082
G1 X129.172 Y118.658 E.04929
G1 X131.24 Y118.145 E.082
G1 X132.506 Y117.962 E.04923
G1 X134.217 Y117.87 E.06592
G1 X186.02 Y117.874 E1.99333
M73 P0 R45
G1 X187.751 Y117.99 E.06675
G1 X189.274 Y118.245 E.05942
G1 X190.661 Y118.608 E.05516
G1 X191.803 Y119.003 E.0465
G1 X193.182 Y119.61 E.05795
G1 X194.527 Y120.358 E.05925
G1 X195.712 Y121.165 E.05516
G1 X196.656 Y121.919 E.0465
G1 X198.027 Y123.246 E.0734
G1 X198.948 Y124.339 E.05502
G1 X200.288 Y126.355 E.09315
G1 X200.841 Y127.428 E.04645
G1 X201.396 Y128.746 E.05503
G1 X201.939 Y130.504 E.07079
G1 X202.189 Y131.688 E.04656
G1 X202.345 Y132.815 E.04377
G1 X202.438 Y134.525 E.06591
G1 X202.408 Y186.408 E1.9964
G1 X202.063 Y188.962 E.09916
G1 X201.785 Y190.07 E.04394
G1 X201.327 Y191.434 E.05537
G1 X200.303 Y193.619 E.09285
G1 X199.057 Y195.523 E.08756
G1 X198.292 Y196.457 E.04646
G1 X196.788 Y197.966 E.08199
G1 X195.23 Y199.184 E.07608
G1 X193.89 Y200.014 E.06066
G1 X191.9 Y200.96 E.08478
G1 X189.871 Y201.613 E.082
G1 X187.929 Y201.987 E.07611
G1 X186.451 Y202.114 E.05708
G1 X133.285 Y202.1 E2.04579
G1 X130.726 Y201.755 E.09936
G1 X128.265 Y201.022 E.09878
G1 X126.139 Y200.032 E.09024
G1 X124.172 Y198.751 E.09034
G1 X122.56 Y197.358 E.08199
G1 X121.68 Y196.427 E.04928
G1 X120.55 Y194.981 E.07063
G1 X119.679 Y193.582 E.06339
G1 X118.733 Y191.592 E.08478
G1 X118.08 Y189.564 E.082
G1 X117.706 Y187.622 E.07612
G1 X117.578 Y186.141 E.05718
G1 X117.592 Y133.592 E2.02204
G1 X117.938 Y131.033 E.09937
G1 X118.301 Y129.646 E.05515
G1 X118.696 Y128.504 E.0465
G1 X119.661 Y126.445 E.0875
G1 X120.247 Y125.47 E.04378
G1 X121.122 Y124.244 E.05794
G1 X122.335 Y122.867 E.07063
G1 X122.421 Y122.786 E.00452
; printing object MoldPart1.STL id:0 copy 0
G1 E-.28 F1800
;WIPE_START
G1 F3000
G1 X123.147 Y122.099 E-.12
;WIPE_END
EXCLUDE_OBJECT_START NAME=MoldPart1.STL_id_0_copy_0
G1 Z.618 F16200
G1 X140.019 Y157.325 Z.618
G1 Z.218
G1 E.4 F1800
;TYPE:Support
G1 F3000
G1 X140.345 Y157.159 E.01408
G1 X140.678 Y157.051 E.01348
G1 X141.022 Y156.985 E.01348
G1 X141.547 Y156.969 E.0202
G1 X142.066 Y157.051 E.0202
G1 X142.399 Y157.159 E.01348
G1 X142.715 Y157.308 E.01348
G1 X143.011 Y157.496 E.01348
G1 X143.281 Y157.719 E.01348
G1 X143.628 Y158.113 E.0202
G1 X143.895 Y158.565 E.0202
G1 X144.024 Y158.89 E.01348
G1 X144.111 Y159.23 E.01348
G1 X144.161 Y159.752 E.0202
G1 X144.133 Y160.405 E.02514
G1 X144.051 Y160.923 E.0202
G1 X143.873 Y161.417 E.0202
G1 X143.606 Y161.869 E.0202
G1 X143.259 Y162.263 E.0202
G1 X142.844 Y162.584 E.0202
G1 X142.377 Y162.823 E.0202
G1 X142.043 Y162.931 E.01348
G1 X141.699 Y162.997 E.01348
G1 X141.175 Y163.013 E.0202
G1 X140.827 Y162.969 E.01348
G1 X140.488 Y162.882 E.01348
G1 X139.76 Y162.583 E.03027
G1 X139.309 Y162.316 E.0202
G1 X138.915 Y161.969 E.0202
G1 X138.593 Y161.554 E.0202
G1 X138.355 Y161.086 E.0202
G1 X138.247 Y160.753 E.01348
G1 X138.181 Y160.409 E.01348
G1 X138.165 Y159.885 E.0202
G1 X138.247 Y159.366 E.0202
G1 X138.424 Y158.872 E.0202
G1 X138.593 Y158.566 E.01348
G1 X138.799 Y158.282 E.01348
G1 X139.17 Y157.911 E.0202
G1 X139.878 Y157.398 E.03364
G1 X139.984 Y157.343 E.00458
G1 X140.18 Y157.728 F16200
G1 F3000
G1 X140.505 Y157.562 E.01405
G1 X140.786 Y157.471 E.01138
G1 X141.077 Y157.415 E.01138
G1 X141.52 Y157.401 E.01706
G1 X141.958 Y157.471 E.01706
G1 X142.239 Y157.562 E.01138
G1 X142.507 Y157.688 E.01138
G1 X142.756 Y157.847 E.01138
G1 X142.984 Y158.035 E.01138
G1 X143.278 Y158.368 E.01706
G1 X143.503 Y158.749 E.01706
G1 X143.612 Y159.024 E.01138
G1 X143.686 Y159.311 E.01138
G1 X143.727 Y159.752 E.01706
G1 X143.701 Y160.378 E.02409
G1 X143.631 Y160.816 E.01706
G1 X143.481 Y161.233 E.01706
G1 X143.255 Y161.614 E.01706
G1 X142.962 Y161.947 E.01706
G1 X142.612 Y162.218 E.01706
G1 X142.217 Y162.42 E.01706
G1 X141.936 Y162.511 E.01138
G1 X141.645 Y162.567 E.01138
G1 X141.202 Y162.58 E.01706
G1 X140.909 Y162.543 E.01138
G1 X140.622 Y162.47 E.01138
G1 X139.945 Y162.191 E.02818
G1 X139.563 Y161.965 E.01706
G1 X139.231 Y161.672 E.01706
G1 X138.959 Y161.322 E.01706
G1 X138.758 Y160.927 E.01706
G1 X138.666 Y160.646 E.01138
G1 X138.611 Y160.355 E.01138
G1 X138.597 Y159.912 E.01706
G1 X138.666 Y159.474 E.01706
G1 X138.817 Y159.057 E.01706
G1 X139.042 Y158.675 E.01706
G1 X139.231 Y158.448 E.01138
G1 X139.446 Y158.245 E.01138
G1 X140.11 Y157.763 E.03154
G1 X140.144 Y157.746 E.00147
G1 X140.342 Y158.129 F16200
G1 F3000
G1 X140.664 Y157.965 E.01392
G1 X140.894 Y157.891 E.00929
G1 X141.131 Y157.845 E.00929
G1 X141.493 Y157.834 E.01392
G1 X141.85 Y157.891 E.01392
G1 X142.079 Y157.965 E.00929
G1 X142.298 Y158.068 E.00929
G1 X142.502 Y158.197 E.00929
G1 X142.688 Y158.351 E.00929
G1 X142.927 Y158.622 E.01392
G1 X143.111 Y158.934 E.01392
G1 X143.2 Y159.158 E.00929
G1 X143.26 Y159.392 E.00929
G1 X143.294 Y159.752 E.01392
G1 X143.268 Y160.35 E.02304
G1 X143.211 Y160.708 E.01392
G1 X143.089 Y161.048 E.01392
G1 X142.905 Y161.359 E.01392
G1 X142.666 Y161.631 E.01392
G1 X142.38 Y161.852 E.01392
G1 X142.057 Y162.017 E.01392
G1 X141.828 Y162.091 E.00929
G1 X141.591 Y162.137 E.00929
G1 X141.229 Y162.148 E.01392
G1 X140.99 Y162.118 E.00929
G1 X140.756 Y162.058 E.00929
G1 X140.129 Y161.799 E.02608
G1 X139.818 Y161.615 E.01392
G1 X139.547 Y161.376 E.01392
G1 X139.325 Y161.09 E.01392
G1 X139.161 Y160.767 E.01392
G1 X139.086 Y160.538 E.00929
G1 X139.041 Y160.301 E.00929
G1 X139.03 Y159.939 E.01392
G1 X139.086 Y159.582 E.01392
G1 X139.209 Y159.242 E.01392
G1 X139.393 Y158.93 E.01392
G1 X139.547 Y158.744 E.00929
G1 X139.723 Y158.579 E.00929
G1 X140.31 Y158.153 E.02791
G1 X140.531 Y158.528 F16200
G1 F3000
G1 X140.738 Y158.405 E.00925
G1 X141.093 Y158.29 E.01436
G1 X141.465 Y158.267 E.01436
G1 X141.742 Y158.31 E.01078
G1 X142.089 Y158.448 E.01436
G1 X142.391 Y158.667 E.01436
G1 X142.629 Y158.955 E.01436
G1 X142.756 Y159.204 E.01078
G1 X142.849 Y159.566 E.01436
G1 X142.861 Y159.752 E.00719
G1 X142.836 Y160.323 E.02199
G1 X142.792 Y160.6 E.01078
G1 X142.697 Y160.864 E.01078
G1 X142.554 Y161.105 E.01078
G1 X142.369 Y161.315 E.01078
G1 X142.148 Y161.487 E.01078
G1 X141.898 Y161.614 E.01078
G1 X141.537 Y161.707 E.01436
G1 X141.256 Y161.715 E.01078
G1 X140.89 Y161.645 E.01436
G1 X140.4 Y161.444 E.02039
G1 X140.15 Y161.317 E.01078
G1 X139.929 Y161.145 E.01078
G1 X139.744 Y160.935 E.01078
G1 X139.564 Y160.608 E.01436
G1 X139.471 Y160.246 E.01436
G1 X139.462 Y159.966 E.01078
G1 X139.506 Y159.69 E.01078
G1 X139.643 Y159.343 E.01436
G1 X139.801 Y159.111 E.01078
G1 X139.999 Y158.913 E.01078
G1 X140.497 Y158.548 E.02376
G1 X140.752 Y158.899 F16200
G1 F3000
G1 X140.923 Y158.798 E.00764
G1 X141.174 Y158.716 E.01018
G1 X141.438 Y158.699 E.01018
G1 X141.634 Y158.73 E.00764
G1 X141.88 Y158.828 E.01018
G1 X142.094 Y158.983 E.01018
G1 X142.263 Y159.187 E.01018
G1 X142.375 Y159.426 E.01018
G1 X142.419 Y159.62 E.00764
G1 X142.403 Y160.296 E.02602
G1 X142.372 Y160.492 E.00764
G1 X142.305 Y160.679 E.00764
G1 X142.204 Y160.85 E.00764
G1 X142.072 Y160.999 E.00764
G1 X141.915 Y161.121 E.00764
G1 X141.738 Y161.211 E.00764
G1 X141.548 Y161.266 E.00764
G1 X141.284 Y161.283 E.01018
G1 X141.024 Y161.233 E.01018
G1 X140.559 Y161.041 E.01934
G1 X140.382 Y160.951 E.00764
G1 X140.226 Y160.829 E.00764
G1 X140.057 Y160.625 E.01018
G1 X139.967 Y160.448 E.00764
G1 X139.911 Y160.258 E.00764
G1 X139.895 Y159.994 E.01018
G1 X139.926 Y159.798 E.00764
G1 X140.023 Y159.552 E.01018
G1 X140.135 Y159.387 E.00764
G1 X140.275 Y159.247 E.00764
G1 X140.72 Y158.922 E.02118
G1 X140.974 Y159.278 F16200
G1 F3000
G1 X141.073 Y159.207 E.00464
G1 X141.255 Y159.142 E.00748
G1 X141.411 Y159.132 E.006
G1 X141.564 Y159.161 E.006
G1 X141.705 Y159.227 E.006
G1 X141.825 Y159.327 E.00599
G1 X141.934 Y159.487 E.00748
G1 X141.992 Y159.713 E.00897
G1 X141.97 Y160.269 E.0214
G1 X141.912 Y160.494 E.00897
G1 X141.775 Y160.683 E.00896
G1 X141.579 Y160.808 E.00896
G1 X141.466 Y160.84 E.0045
G1 X141.311 Y160.85 E.006
G1 X141.121 Y160.808 E.00749
G1 X140.683 Y160.622 E.0183
G1 X140.552 Y160.539 E.00599
G1 X140.469 Y160.456 E.0045
G1 X140.385 Y160.325 E.00599
G1 X140.337 Y160.176 E.006
G1 X140.327 Y160.021 E.006
G1 X140.346 Y159.905 E.0045
G1 X140.403 Y159.76 E.006
G1 X140.552 Y159.581 E.00896
G1 X140.942 Y159.301 E.01848
G1 X141.194 Y159.649 F16200
G1 F3000
G1 X141.271 Y159.593 E.00366
G1 X141.384 Y159.564 E.00448
G1 X141.492 Y159.607 E.00448
G1 X141.554 Y159.705 E.00448
G1 X141.538 Y160.242 E.02064
G1 X141.52 Y160.31 E.00271
G1 X141.479 Y160.367 E.00271
G1 X141.408 Y160.409 E.00316
G1 X141.338 Y160.418 E.00271
G1 X140.849 Y160.22 E.0203
G1 X140.783 Y160.151 E.0037
G1 X140.76 Y160.048 E.00404
G1 X140.783 Y159.969 E.00316
G1 X140.837 Y159.908 E.00316
G1 X141.162 Y159.673 E.01542
G1 E-.28 F1800
;WIPE_START
G1 F3000
G1 X141.271 Y159.593 E-.01622
G1 X141.384 Y159.564 E-.01396
G1 X141.492 Y159.607 E-.01396
G1 X141.554 Y159.705 E-.01396
G1 X141.538 Y160.221 E-.0619
;WIPE_END
G1 Z.618 F16200
G1 X159.71 Y178.331 Z.618
G1 Z.218
G1 E.4 F1800
G1 F3000
G1 X159.78 Y178.289 E.00316
G1 X159.85 Y178.28 E.00271
G1 X159.919 Y178.298 E.00271
G1 X159.976 Y178.339 E.00272
G1 X160.018 Y178.41 E.00316
G1 X160.026 Y178.48 E.00271
G1 X160.009 Y178.548 E.00271
G1 X159.967 Y178.605 E.00272
G1 X159.897 Y178.647 E.00316
G1 X159.827 Y178.656 E.00271
G1 X159.758 Y178.639 E.00271
G1 X159.701 Y178.597 E.00272
G1 X159.66 Y178.526 E.00316
G1 X159.651 Y178.456 E.00271
G1 X159.668 Y178.388 E.00271
G1 X159.686 Y178.363 E.00118
G1 X159.342 Y178.113 F16200
G1 F3000
G1 X159.413 Y178.015 E.00466
G1 X159.61 Y177.89 E.00896
G1 X159.722 Y177.858 E.0045
G1 X159.878 Y177.848 E.006
G1 X160.103 Y177.906 E.00897
G1 X160.292 Y178.043 E.00896
G1 X160.417 Y178.239 E.00896
G1 X160.449 Y178.352 E.0045
G1 X160.459 Y178.507 E.006
G1 X160.401 Y178.733 E.00897
G1 X160.264 Y178.921 E.00896
G1 X160.067 Y179.046 E.00896
G1 X159.955 Y179.079 E.0045
G1 X159.8 Y179.089 E.006
G1 X159.574 Y179.031 E.00897
G1 X159.385 Y178.894 E.00896
G1 X159.261 Y178.697 E.00896
