; HEADER_BLOCK_START
; generated by OrcaSlicer 1.8.0-beta1 on 2025-01-01 at 14:41:12
; total layer number: 100
; HEADER_BLOCK_END


;
;
; external perimeters extrusion width = 0.40mm
; perimeters extrusion width = 0.45mm
; infill extrusion width = 0.45mm
; solid infill extrusion width = 0.40mm
; top infill extrusion width = 0.40mm
; support material extrusion width = 0.40mm
; first layer extrusion width = 0.48mm

; external perimeters extrusion width = 0.40mm
; perimeters extrusion width = 0.45mm
; infill extrusion width = 0.45mm
; solid infill extrusion width = 0.40mm
; top infill extrusion width = 0.40mm
; support material extrusion width = 0.40mm
; first layer extrusion width = 0.48mm

; external perimeters extrusion width = 0.40mm
; perimeters extrusion width = 0.45mm
; infill extrusion width = 0.45mm
; solid infill extrusion width = 0.40mm
; top infill extrusion width = 0.40mm
; support material extrusion width = 0.40mm
; first layer extrusion width = 0.48mm

; external perimeters extrusion width = 0.40mm
; perimeters extrusion width = 0.45mm
; infill extrusion width = 0.45mm
; solid infill extrusion width = 0.40mm
; top infill extrusion width = 0.40mm
; support material extrusion width = 0.40mm
; first layer extrusion width = 0.48mm

; EXECUTABLE_BLOCK_START
EXCLUDE_OBJECT_DEFINE NAME=PlainFoot.STL_id_0_copy_0 CENTER=169.245,169.5 POLYGON=[[165,169.5],[165.001,169.434],[165.003,169.347],[165.011,169.194],[165.016,169.129],[165.025,169.041],[165.039,168.926],[165.044,168.889],[165.054,168.825],[165.069,168.738],[165.092,168.624],[165.099,168.587],[165.114,168.524],[165.135,168.438],[165.166,168.327],[165.176,168.291],[165.195,168.229],[165.222,168.145],[165.261,168.035],[165.274,168],[165.297,167.94],[165.331,167.858],[165.393,167.718],[165.459,167.58],[165.531,167.444],[166.783,165.085],[166.786,165.079],[166.792,165.069],[166.794,165.067],[166.801,165.055],[166.806,165.049],[166.81,165.044],[166.815,165.038],[166.819,165.033],[166.824,165.027],[166.83,165.022],[166.832,165.02],[166.835,165.018],[166.837,165.016],[166.841,165.013],[166.847,165.009],[166.852,165.007],[166.856,165.005],[166.859,165.004],[166.864,165.002],[166.866,165.002],[166.872,165.001],[166.876,165],[166.88,165],[166.908,165],[167.022,165],[167.25,165],[167.478,165],[167.707,165],[167.936,165],[171.144,165],[171.253,165.121],[171.362,165.242],[171.458,165.349],[171.471,165.364],[171.578,165.487],[171.685,165.61],[171.687,165.613],[171.79,165.735],[171.891,165.857],[171.997,165.987],[172.073,166.083],[172.098,166.116],[172.197,166.245],[172.23,166.289],[172.294,166.377],[172.37,166.482],[172.389,166.51],[172.481,166.644],[172.512,166.691],[172.57,166.78],[172.642,166.897],[172.656,166.919],[172.739,167.059],[172.768,167.109],[172.946,167.421],[172.959,167.444],[173.019,167.555],[173.031,167.58],[173.086,167.693],[173.098,167.718],[173.149,167.833],[173.16,167.858],[173.207,167.975],[173.216,168],[173.259,168.119],[173.268,168.145],[173.307,168.266],[173.314,168.291],[173.349,168.415],[173.355,168.438],[173.391,168.587],[173.421,168.738],[173.446,168.889],[173.465,169.041],[173.479,169.194],[173.487,169.347],[173.49,169.5],[173.487,169.653],[173.479,169.806],[173.465,169.959],[173.446,170.111],[173.421,170.262],[173.391,170.413],[173.355,170.562],[173.349,170.585],[173.314,170.709],[173.307,170.734],[173.268,170.855],[173.26,170.88],[173.216,171],[173.207,171.025],[173.16,171.142],[173.149,171.167],[173.098,171.282],[173.087,171.307],[173.031,171.42],[173.019,171.444],[172.959,171.556],[172.946,171.579],[172.768,171.892],[172.728,171.961],[172.655,172.083],[172.558,172.237],[172.521,172.294],[172.47,172.372],[172.382,172.501],[172.284,172.638],[172.239,172.699],[172.188,172.767],[172.089,172.896],[171.989,173.022],[171.919,173.109],[171.887,173.148],[171.784,173.272],[171.723,173.345],[171.574,173.518],[171.502,173.601],[171.361,173.76],[171.254,173.878],[171.144,174],[166.88,174],[166.876,174],[166.872,173.999],[166.868,173.999],[166.864,173.998],[166.859,173.996],[166.856,173.995],[166.852,173.993],[166.847,173.99],[166.843,173.988],[166.841,173.987],[166.838,173.985],[166.835,173.982],[166.833,173.981],[166.829,173.978],[166.828,173.976],[166.824,173.973],[166.822,173.97],[166.819,173.967],[166.814,173.961],[166.81,173.957],[166.805,173.951],[166.801,173.945],[166.793,173.933],[166.786,173.921],[166.783,173.915],[165.531,171.556],[165.459,171.42],[165.393,171.282],[165.331,171.142],[165.274,171],[165.251,170.938],[165.222,170.855],[165.218,170.841],[165.187,170.744],[165.176,170.709],[165.158,170.646],[165.135,170.562],[165.099,170.413],[165.086,170.348],[165.069,170.262],[165.044,170.111],[165.035,170.046],[165.025,169.959],[165.023,169.944],[165.014,169.843],[165.011,169.806],[165.007,169.741],[165.003,169.653],[165,169.5]]
EXCLUDE_OBJECT_DEFINE NAME=PlainFoot.STL_id_1_copy_0 CENTER=150.755,169.5 POLYGON=[[146.51,169.5],[146.511,169.434],[146.513,169.347],[146.521,169.194],[146.526,169.129],[146.535,169.041],[146.549,168.926],[146.554,168.889],[146.564,168.825],[146.579,168.738],[146.601,168.624],[146.609,168.587],[146.624,168.524],[146.645,168.438],[146.675,168.327],[146.686,168.291],[146.705,168.229],[146.732,168.145],[146.771,168.035],[146.784,168],[146.807,167.94],[146.841,167.858],[146.902,167.718],[146.969,167.58],[147.041,167.444],[148.293,165.085],[148.296,165.079],[148.302,165.069],[148.303,165.067],[148.311,165.055],[148.315,165.049],[148.32,165.044],[148.324,165.038],[148.329,165.033],[148.334,165.027],[148.34,165.022],[148.342,165.02],[148.345,165.018],[148.347,165.016],[148.351,165.013],[148.357,165.009],[148.362,165.007],[148.366,165.005],[148.369,165.004],[148.374,165.002],[148.376,165.002],[148.382,165.001],[148.386,165],[148.389,165],[148.418,165],[148.532,165],[148.76,165],[148.988,165],[149.217,165],[149.446,165],[152.653,165],[152.763,165.121],[152.872,165.242],[152.968,165.349],[152.981,165.364],[153.088,165.487],[153.195,165.61],[153.197,165.613],[153.3,165.735],[153.401,165.857],[153.507,165.987],[153.583,166.083],[153.608,166.116],[153.707,166.245],[153.74,166.289],[153.804,166.377],[153.879,166.482],[153.899,166.51],[153.991,166.644],[154.021,166.691],[154.08,166.78],[154.152,166.897],[154.166,166.919],[154.249,167.059],[154.278,167.109],[154.456,167.421],[154.469,167.444],[154.528,167.555],[154.541,167.58],[154.596,167.693],[154.608,167.718],[154.659,167.833],[154.67,167.858],[154.717,167.975],[154.726,168],[154.769,168.119],[154.778,168.145],[154.817,168.266],[154.824,168.291],[154.859,168.415],[154.865,168.438],[154.901,168.587],[154.931,168.738],[154.956,168.889],[154.975,169.041],[154.989,169.194],[154.997,169.347],[155,169.5],[154.997,169.653],[154.989,169.806],[154.975,169.959],[154.956,170.111],[154.931,170.262],[154.901,170.413],[154.865,170.562],[154.859,170.585],[154.824,170.709],[154.817,170.734],[154.778,170.855],[154.769,170.88],[154.726,171],[154.717,171.025],[154.67,171.142],[154.659,171.167],[154.608,171.282],[154.596,171.307],[154.541,171.42],[154.529,171.444],[154.469,171.556],[154.456,171.579],[154.278,171.892],[154.238,171.961],[154.165,172.083],[154.068,172.237],[154.031,172.294],[153.98,172.372],[153.892,172.501],[153.794,172.638],[153.749,172.699],[153.698,172.767],[153.599,172.896],[153.499,173.022],[153.429,173.109],[153.397,173.148],[153.294,173.272],[153.233,173.345],[153.084,173.518],[153.012,173.601],[152.87,173.76],[152.764,173.878],[152.653,174],[148.389,174],[148.385,174],[148.382,173.999],[148.378,173.999],[148.374,173.998],[148.369,173.996],[148.366,173.995],[148.362,173.993],[148.357,173.99],[148.353,173.988],[148.351,173.987],[148.348,173.985],[148.345,173.982],[148.343,173.981],[148.339,173.978],[148.338,173.976],[148.334,173.973],[148.331,173.97],[148.329,173.967],[148.323,173.961],[148.32,173.957],[148.315,173.951],[148.311,173.945],[148.303,173.933],[148.296,173.921],[148.293,173.915],[147.041,171.556],[146.969,171.42],[146.902,171.282],[146.841,171.142],[146.784,171],[146.761,170.938],[146.732,170.855],[146.728,170.841],[146.696,170.744],[146.686,170.709],[146.668,170.646],[146.645,170.562],[146.609,170.413],[146.596,170.348],[146.579,170.262],[146.554,170.111],[146.545,170.046],[146.535,169.959],[146.533,169.944],[146.524,169.843],[146.521,169.806],[146.517,169.741],[146.513,169.653],[146.51,169.5]]
EXCLUDE_OBJECT_DEFINE NAME=PlainFoot.STL_id_2_copy_0 CENTER=150.755,150.499 POLYGON=[[146.51,150.499],[146.511,150.434],[146.513,150.346],[146.521,150.193],[146.526,150.128],[146.535,150.041],[146.549,149.926],[146.554,149.888],[146.564,149.824],[146.579,149.737],[146.601,149.624],[146.609,149.587],[146.624,149.524],[146.645,149.438],[146.675,149.326],[146.686,149.29],[146.705,149.228],[146.732,149.144],[146.771,149.035],[146.784,149],[146.807,148.939],[146.841,148.857],[146.902,148.717],[146.969,148.579],[147.041,148.444],[148.293,146.085],[148.296,146.079],[148.302,146.068],[148.303,146.066],[148.311,146.055],[148.315,146.049],[148.32,146.043],[148.324,146.037],[148.329,146.032],[148.334,146.027],[148.34,146.022],[148.342,146.02],[148.345,146.017],[148.347,146.015],[148.351,146.013],[148.357,146.009],[148.362,146.006],[148.366,146.005],[148.369,146.003],[148.374,146.002],[148.376,146.001],[148.382,146],[148.386,146],[148.389,146],[148.418,146],[148.532,146],[148.76,146],[148.988,145.999],[149.217,145.999],[149.446,145.999],[152.653,145.999],[152.763,146.12],[152.872,146.242],[152.968,146.349],[152.981,146.363],[153.088,146.486],[153.195,146.61],[153.197,146.613],[153.3,146.734],[153.401,146.857],[153.507,146.987],[153.583,147.083],[153.608,147.115],[153.707,147.245],[153.74,147.289],[153.804,147.376],[153.879,147.481],[153.899,147.509],[153.991,147.644],[154.021,147.69],[154.08,147.78],[154.152,147.896],[154.166,147.918],[154.249,148.058],[154.278,148.108],[154.456,148.42],[154.469,148.444],[154.528,148.555],[154.541,148.579],[154.596,148.692],[154.608,148.717],[154.659,148.832],[154.67,148.857],[154.717,148.974],[154.726,149],[154.769,149.119],[154.778,149.144],[154.817,149.266],[154.824,149.29],[154.859,149.414],[154.865,149.438],[154.901,149.587],[154.931,149.737],[154.956,149.888],[154.975,150.041],[154.989,150.193],[154.997,150.346],[155,150.499],[154.997,150.653],[154.989,150.806],[154.975,150.958],[154.956,151.111],[154.931,151.262],[154.901,151.412],[154.865,151.561],[154.859,151.584],[154.824,151.709],[154.817,151.733],[154.778,151.855],[154.769,151.88],[154.726,151.999],[154.717,152.024],[154.67,152.142],[154.659,152.166],[154.608,152.282],[154.596,152.306],[154.541,152.42],[154.529,152.444],[154.469,152.555],[154.456,152.578],[154.278,152.892],[154.238,152.96],[154.165,153.082],[154.068,153.236],[154.031,153.293],[153.98,153.372],[153.892,153.5],[153.794,153.637],[153.749,153.698],[153.698,153.767],[153.599,153.896],[153.499,154.022],[153.429,154.109],[153.397,154.147],[153.294,154.272],[153.233,154.345],[153.084,154.517],[153.012,154.6],[152.87,154.76],[152.764,154.878],[152.653,154.999],[148.389,154.999],[148.385,154.999],[148.382,154.999],[148.378,154.998],[148.374,154.997],[148.369,154.996],[148.366,154.995],[148.362,154.993],[148.357,154.99],[148.353,154.988],[148.351,154.986],[148.348,154.984],[148.345,154.982],[148.343,154.98],[148.339,154.977],[148.338,154.975],[148.334,154.972],[148.331,154.969],[148.329,154.967],[148.323,154.96],[148.32,154.956],[148.315,154.95],[148.311,154.944],[148.303,154.932],[148.296,154.92],[148.293,154.914],[147.041,152.555],[146.969,152.42],[146.902,152.282],[146.841,152.142],[146.784,151.999],[146.761,151.937],[146.732,151.855],[146.728,151.841],[146.696,151.743],[146.686,151.709],[146.668,151.645],[146.645,151.561],[146.609,151.412],[146.596,151.347],[146.579,151.262],[146.554,151.111],[146.545,151.045],[146.535,150.958],[146.533,150.944],[146.524,150.842],[146.521,150.806],[146.517,150.74],[146.513,150.653],[146.51,150.499]]
EXCLUDE_OBJECT_DEFINE NAME=PlainFoot.STL_id_3_copy_0 CENTER=169.244,150.499 POLYGON=[[165,150.499],[165.001,150.434],[165.002,150.346],[165.011,150.193],[165.016,150.128],[165.024,150.041],[165.039,149.926],[165.044,149.888],[165.054,149.824],[165.069,149.737],[165.091,149.624],[165.099,149.587],[165.113,149.524],[165.134,149.438],[165.165,149.326],[165.175,149.29],[165.194,149.228],[165.222,149.144],[165.26,149.035],[165.273,149],[165.297,148.939],[165.33,148.857],[165.392,148.717],[165.459,148.579],[165.531,148.444],[166.782,146.085],[166.786,146.079],[166.792,146.068],[166.793,146.066],[166.801,146.055],[166.805,146.049],[166.809,146.043],[166.814,146.037],[166.818,146.032],[166.824,146.027],[166.829,146.022],[166.831,146.02],[166.835,146.017],[166.837,146.015],[166.84,146.013],[166.847,146.009],[166.851,146.006],[166.855,146.005],[166.859,146.003],[166.863,146.002],[166.865,146.001],[166.871,146],[166.875,146],[166.879,146],[166.908,146],[167.021,146],[167.249,146],[167.477,145.999],[167.706,145.999],[167.935,145.999],[171.143,145.999],[171.253,146.12],[171.362,146.242],[171.457,146.349],[171.47,146.363],[171.578,146.486],[171.684,146.61],[171.687,146.613],[171.789,146.734],[171.891,146.857],[171.996,146.987],[172.072,147.083],[172.097,147.115],[172.197,147.245],[172.229,147.289],[172.294,147.376],[172.369,147.481],[172.388,147.509],[172.48,147.644],[172.511,147.69],[172.569,147.78],[172.642,147.896],[172.655,147.918],[172.739,148.058],[172.768,148.108],[172.945,148.42],[172.959,148.444],[173.018,148.555],[173.03,148.579],[173.086,148.692],[173.097,148.717],[173.148,148.832],[173.159,148.857],[173.206,148.974],[173.216,149],[173.259,149.119],[173.267,149.144],[173.306,149.266],[173.314,149.29],[173.348,149.414],[173.355,149.438],[173.39,149.587],[173.421,149.737],[173.445,149.888],[173.465,150.041],[173.478,150.193],[173.487,150.346],[173.489,150.499],[173.487,150.653],[173.478,150.806],[173.465,150.958],[173.445,151.111],[173.421,151.262],[173.39,151.412],[173.355,151.561],[173.349,151.584],[173.314,151.709],[173.306,151.733],[173.267,151.855],[173.259,151.88],[173.216,151.999],[173.206,152.024],[173.159,152.142],[173.149,152.166],[173.097,152.282],[173.086,152.306],[173.03,152.42],[173.018,152.444],[172.959,152.555],[172.946,152.578],[172.767,152.892],[172.727,152.96],[172.654,153.082],[172.558,153.236],[172.521,153.293],[172.469,153.372],[172.381,153.5],[172.283,153.637],[172.239,153.698],[172.187,153.767],[172.088,153.896],[171.988,154.022],[171.918,154.109],[171.887,154.147],[171.784,154.272],[171.722,154.345],[171.574,154.517],[171.501,154.6],[171.36,154.76],[171.253,154.878],[171.143,154.999],[166.879,154.999],[166.875,154.999],[166.871,154.999],[166.867,154.998],[166.864,154.997],[166.858,154.996],[166.856,154.995],[166.852,154.993],[166.846,154.99],[166.843,154.988],[166.84,154.986],[166.838,154.984],[166.834,154.982],[166.833,154.98],[166.829,154.977],[166.827,154.975],[166.824,154.972],[166.821,154.969],[166.818,154.967],[166.813,154.96],[166.81,154.956],[166.805,154.95],[166.8,154.944],[166.793,154.932],[166.786,154.92],[166.782,154.914],[165.531,152.555],[165.459,152.42],[165.392,152.282],[165.33,152.142],[165.273,151.999],[165.25,151.937],[165.222,151.855],[165.217,151.841],[165.186,151.743],[165.175,151.709],[165.157,151.645],[165.134,151.561],[165.099,151.412],[165.085,151.347],[165.069,151.262],[165.044,151.111],[165.035,151.045],[165.024,150.958],[165.023,150.944],[165.013,150.842],[165.011,150.806],[165.006,150.74],[165.002,150.653],[165,150.499]]
M73 P0 R19
;TYPE:Custom
M190 S60
M109 S215
PRINT_START EXTRUDER=215 BED=60
G90
G21
M83 ; use relative distances for extrusion
; filament start gcode
M106 S0
;LAYER_CHANGE
;Z:0.218
;HEIGHT:0.218
;BEFORE_LAYER_CHANGE
;0.218
G92 E0

G1 E-.4 F1800
;AFTER_LAYER_CHANGE
;0.218
;_SET_FAN_SPEED_CHANGING_LAYER
SET_VELOCITY_LIMIT ACCEL=500 ACCEL_TO_DECEL=250
G1 Z.4 F16200
G1 X138.151 Y136.168
G1 Z.4
G1 Z.218
G1 E.4 F1800
;TYPE:Skirt
;WIDTH:0.48
G1 F3000
G1 X138.626 Y135.687 E.02599
G1 X139.895 Y134.624 E.06371
G1 X141.198 Y133.767 E.06001
G1 X142.333 Y133.174 E.04928
G1 X143.868 Y132.552 E.06371
G1 X145.349 Y132.141 E.05917
