; HEADER_BLOCK_START
; generated by OrcaSlicer 1.8.0-beta1 on 2024-12-30 at 11:34:38
; total layer number: 25
; HEADER_BLOCK_END


;
;
; external perimeters extrusion width = 0.40mm
; perimeters extrusion width = 0.45mm
; infill extrusion width = 0.45mm
; solid infill extrusion width = 0.40mm
; top infill extrusion width = 0.40mm
; support material extrusion width = 0.40mm
; first layer extrusion width = 0.48mm

; external perimeters extrusion width = 0.40mm
; perimeters extrusion width = 0.45mm
; infill extrusion width = 0.45mm
; solid infill extrusion width = 0.40mm
; top infill extrusion width = 0.40mm
; support material extrusion width = 0.40mm
; first layer extrusion width = 0.48mm

; external perimeters extrusion width = 0.40mm
; perimeters extrusion width = 0.45mm
; infill extrusion width = 0.45mm
; solid infill extrusion width = 0.40mm
; top infill extrusion width = 0.40mm
; support material extrusion width = 0.40mm
; first layer extrusion width = 0.48mm

; external perimeters extrusion width = 0.40mm
; perimeters extrusion width = 0.45mm
; infill extrusion width = 0.45mm
; solid infill extrusion width = 0.40mm
; top infill extrusion width = 0.40mm
; support material extrusion width = 0.40mm
; first layer extrusion width = 0.48mm

; external perimeters extrusion width = 0.40mm
; perimeters extrusion width = 0.45mm
; infill extrusion width = 0.45mm
; solid infill extrusion width = 0.40mm
; top infill extrusion width = 0.40mm
; support material extrusion width = 0.40mm
; first layer extrusion width = 0.48mm

; external perimeters extrusion width = 0.40mm
; perimeters extrusion width = 0.45mm
; infill extrusion width = 0.45mm
; solid infill extrusion width = 0.40mm
; top infill extrusion width = 0.40mm
; support material extrusion width = 0.40mm
; first layer extrusion width = 0.48mm

; EXECUTABLE_BLOCK_START
EXCLUDE_OBJECT_DEFINE NAME=UltrasonicSensorCarrier.STL_id_0_copy_0 CENTER=180,185.394 POLYGON=[[156.715,165],[203.285,165],[203.285,203.79],[203.28,203.93],[203.266,204.068],[203.241,204.206],[203.208,204.341],[203.164,204.474],[203.112,204.603],[203.051,204.729],[202.981,204.85],[202.903,204.966],[202.817,205.076],[202.724,205.179],[202.623,205.276],[202.516,205.366],[202.403,205.448],[202.285,205.522],[202.162,205.588],[202.034,205.644],[201.903,205.692],[201.769,205.731],[201.632,205.76],[201.494,205.779],[201.355,205.789],[158.645,205.789],[158.506,205.779],[158.368,205.76],[158.231,205.731],[158.097,205.692],[157.966,205.644],[157.838,205.588],[157.715,205.522],[157.597,205.448],[157.484,205.366],[157.377,205.276],[157.276,205.179],[157.183,205.076],[157.097,204.966],[157.019,204.85],[156.949,204.729],[156.888,204.603],[156.836,204.474],[156.792,204.341],[156.759,204.206],[156.734,204.068],[156.72,203.93],[156.715,203.79],[156.715,165]]
EXCLUDE_OBJECT_DEFINE NAME=UltrasonicSensorCarrier.STL_id_1_copy_0 CENTER=180,134.606 POLYGON=[[156.715,114.211],[203.285,114.211],[203.285,153.001],[203.28,153.141],[203.266,153.28],[203.241,153.417],[203.208,153.552],[203.164,153.685],[203.112,153.815],[203.051,153.94],[202.981,154.061],[202.903,154.177],[202.817,154.287],[202.724,154.391],[202.623,154.488],[202.516,154.577],[202.403,154.659],[202.285,154.733],[202.162,154.799],[202.034,154.856],[201.903,154.903],[201.769,154.942],[201.632,154.971],[201.494,154.99],[201.355,155],[158.645,155],[158.506,154.99],[158.368,154.971],[158.231,154.942],[158.097,154.903],[157.966,154.856],[157.838,154.799],[157.715,154.733],[157.597,154.659],[157.484,154.577],[157.377,154.488],[157.276,154.391],[157.183,154.287],[157.097,154.177],[157.019,154.061],[156.949,153.94],[156.888,153.815],[156.836,153.685],[156.792,153.552],[156.759,153.417],[156.734,153.28],[156.72,153.141],[156.715,153.001],[156.715,114.211]]
EXCLUDE_OBJECT_DEFINE NAME=StandoffBlock.STL_id_2_copy_0 CENTER=141.715,157.164 POLYGON=[[136.715,151.664],[146.715,151.664],[146.715,162.664],[136.715,162.664],[136.715,151.664]]
EXCLUDE_OBJECT_DEFINE NAME=StandoffBlock.STL_id_3_copy_0 CENTER=141.715,136.164 POLYGON=[[136.715,130.664],[146.715,130.664],[146.715,141.664],[136.715,141.664],[136.715,130.664]]
EXCLUDE_OBJECT_DEFINE NAME=StandoffBlock.STL_id_4_copy_0 CENTER=141.715,178.164 POLYGON=[[136.715,172.664],[146.715,172.664],[146.715,183.664],[136.715,183.664],[136.715,172.664]]
EXCLUDE_OBJECT_DEFINE NAME=StandoffBlock.STL_id_5_copy_0 CENTER=121.715,156.866 POLYGON=[[116.715,151.366],[126.715,151.366],[126.715,162.366],[116.715,162.366],[116.715,151.366]]
M73 P0 R32
;TYPE:Custom
M190 S60
M109 S215
PRINT_START EXTRUDER=215 BED=60
G90
G21
M83 ; use relative distances for extrusion
; filament start gcode
M106 S0
;LAYER_CHANGE
;Z:0.218
;HEIGHT:0.218
;BEFORE_LAYER_CHANGE
;0.218
G92 E0

G1 E-.4 F1800
;AFTER_LAYER_CHANGE
;0.218
;_SET_FAN_SPEED_CHANGING_LAYER
SET_VELOCITY_LIMIT ACCEL=500 ACCEL_TO_DECEL=250
G1 Z.4 F16200
G1 X125.926 Y121.708
G1 Z.4
G1 Z.218
G1 E.4 F1800
;TYPE:Skirt
;WIDTH:0.48
G1 F3000
G1 X127.015 Y120.582 E.06026
G1 X147.626 Y103.577 E1.0282
G1 X148.95 Y102.581 E.06371
G1 X150.612 Y101.635 E.0736
G1 X152.055 Y101.033 E.06017
G1 X153.711 Y100.551 E.06635
G1 X155.345 Y100.288 E.06371
G1 X156.476 Y100.217 E.0436
G1 X203.697 Y100.226 E1.81701
G1 X206.165 Y100.524 E.09565
G1 X208.414 Y101.207 E.09046
G1 X209.306 Y101.591 E.03737
G1 X210.809 Y102.417 E.06598
G1 X212.773 Y103.928 E.09535
G1 X214.44 Y105.772 E.09565
G1 X215.689 Y107.761 E.09036
G1 X216.187 Y108.839 E.04572
G1 X216.74 Y110.4 E.06371
G1 X217.208 Y112.842 E.09565
G1 X217.283 Y114.211 E.05278
G1 X217.274 Y204.174 E3.46167
G1 X217.163 Y205.726 E.05986
G1 X216.853 Y207.451 E.06746
G1 X216.413 Y208.985 E.06138
G1 X215.842 Y210.417 E.05932
G1 X214.979 Y212.054 E.07121
G1 X213.724 Y213.846 E.08417
G1 X212.356 Y215.333 E.07776
G1 X211.027 Y216.475 E.06746
G1 X208.931 Y217.838 E.09617
G1 X207.153 Y218.669 E.07555
G1 X205.025 Y219.341 E.08585
G1 X203.4 Y219.643 E.0636
G1 X201.237 Y219.787 E.0834
G1 X158.661 Y219.784 E1.63829
G1 X156.701 Y219.656 E.07557
G1 X155.542 Y219.467 E.04517
G1 X153.996 Y219.073 E.06138
G1 X152.352 Y218.464 E.06745
G1 X150.602 Y217.574 E.07555
G1 X149.488 Y216.853 E.05107
G1 X148.554 Y216.142 E.04518
G1 X147.379 Y215.074 E.06109
G1 X126.436 Y193.163 E1.16628
G1 X106.436 Y171.866 E1.1242
G1 X105.085 Y170.132 E.0846
G1 X104.311 Y168.817 E.05871
G1 X103.512 Y166.962 E.0777
G1 X103.055 Y165.371 E.06371
G1 X102.738 Y163.087 E.08871
G1 X102.717 Y151.366 E.451
G1 X102.779 Y150.124 E.04788
G1 X103.027 Y148.486 E.06371
G1 X103.783 Y146.052 E.09807
G1 X104.921 Y143.842 E.09565
G1 X106.395 Y141.917 E.09332
G1 X125.899 Y121.737 E1.07989
G1 X126.21 Y122.038 F16200
G1 F3000
G1 X127.324 Y120.885 E.06167
G1 X147.897 Y103.915 E1.0262
G1 X149.178 Y102.949 E.06171
G1 X150.805 Y102.022 E.07206
G1 X152.216 Y101.435 E.0588
G1 X153.818 Y100.971 E.06418
G1 X155.401 Y100.717 E.06171
G1 X156.491 Y100.65 E.04202
G1 X203.671 Y100.658 E1.81543
G1 X206.087 Y100.95 E.09365
G1 X208.243 Y101.605 E.08669
G1 X209.135 Y101.989 E.03737
G1 X210.588 Y102.79 E.06383
G1 X212.47 Y104.237 E.09135
G1 X214.101 Y106.043 E.09365
G1 X215.299 Y107.951 E.08668
G1 X215.784 Y108.996 E.04433
G1 X216.32 Y110.507 E.06171
G1 X216.779 Y112.898 E.09365
G1 X216.85 Y114.211 E.05062
G1 X216.841 Y204.174 E3.46167
G1 X216.734 Y205.667 E.05759
G1 X216.429 Y207.363 E.0663
G1 X216.006 Y208.838 E.05906
G1 X215.444 Y210.245 E.05829
G1 X214.613 Y211.822 E.06862
G1 X213.392 Y213.568 E.08198
G1 X212.063 Y215.015 E.07558
G1 X210.756 Y216.137 E.06629
G1 X208.717 Y217.462 E.09357
G1 X206.986 Y218.269 E.0735
G1 X204.915 Y218.922 E.08353
G1 X203.353 Y219.212 E.06113
G1 X201.237 Y219.353 E.0816
G1 X158.671 Y219.351 E1.6379
G1 X156.745 Y219.225 E.07427
G1 X155.62 Y219.04 E.04387
G1 X154.132 Y218.661 E.05906
G1 X152.517 Y218.064 E.06628
G1 X150.815 Y217.197 E.0735
G1 X149.729 Y216.493 E.04977
G1 X148.822 Y215.802 E.04388
G1 X147.692 Y214.774 E.05877
G1 X126.752 Y192.867 E1.16613
G1 X106.752 Y171.569 E1.1242
G1 X105.453 Y169.904 E.08128
G1 X104.701 Y168.627 E.05703
G1 X103.916 Y166.806 E.07631
G1 X103.474 Y165.264 E.06171
G1 X103.171 Y163.072 E.08514
G1 X103.162 Y150.98 E.46528
G1 X103.454 Y148.564 E.09365
G1 X104.179 Y146.227 E.09415
G1 X105.294 Y144.064 E.09365
G1 X106.706 Y142.218 E.08945
G1 X126.182 Y122.067 E1.07834
; printing object UltrasonicSensorCarrier.STL id:0 copy 0
G1 E-.28 F1800
;WIPE_START
G1 F3000
G1 X126.877 Y121.348 E-.12
;WIPE_END
EXCLUDE_OBJECT_START NAME=UltrasonicSensorCarrier.STL_id_0_copy_0
G1 Z.618 F16200
G1 X152.691 Y159.384 Z.618
G1 Z.218
G1 E.4 F1800
;TYPE:Brim
G1 F3000
G1 X153.378 Y158.959 E.0311
G1 X153.912 Y158.698 E.02287
G1 X154.668 Y158.405 E.03117
G1 X155.449 Y158.206 E.03102
G1 X156.251 Y158.101 E.03112
G1 X156.719 Y158.085 E.01802
G1 X203.278 Y158.085 E1.79156
G1 X204.09 Y158.134 E.03127
G1 X204.883 Y158.278 E.03103
G1 X205.622 Y158.505 E.02975
G1 X206.49 Y158.879 E.03638
G1 X207.183 Y159.29 E.03098
G1 X207.822 Y159.782 E.03102
G1 X208.397 Y160.347 E.03102
G1 X208.901 Y160.976 E.03102
G1 X209.326 Y161.663 E.0311
G1 X209.587 Y162.197 E.02287
G1 X209.88 Y162.953 E.03117
G1 X210.079 Y163.734 E.03102
G1 X210.184 Y164.536 E.03112
G1 X210.2 Y165.004 E.01801
G1 X210.191 Y204.164 E1.50686
M73 P1 R32
G1 X210.145 Y204.769 E.02332
G1 X210.081 Y205.234 E.01809
G1 X209.922 Y205.992 E.0298
G1 X209.748 Y206.59 E.02394
G1 X209.588 Y207.032 E.01811
G1 X209.342 Y207.603 E.02392
G1 X208.985 Y208.28 E.02944
G1 X208.649 Y208.812 E.02422
G1 X208.28 Y209.315 E.024
G1 X207.978 Y209.677 E.01811
G1 X207.551 Y210.13 E.02398
G1 X207.093 Y210.551 E.02394
G1 X206.608 Y210.94 E.02391
G1 X205.968 Y211.374 E.02977
G1 X205.428 Y211.682 E.02393
G1 X205.005 Y211.89 E.01811
G1 X204.43 Y212.13 E.02397
G1 X203.841 Y212.329 E.02394
G1 X203.239 Y212.487 E.02394
G1 X202.629 Y212.602 E.0239
G1 X201.859 Y212.685 E.02978
G1 X201.238 Y212.703 E.0239
G1 X200.616 Y212.678 E.02397
G1 X200.148 Y212.631 E.01811
G1 X199.534 Y212.53 E.02393
G1 X198.784 Y212.345 E.0297
G1 X197.884 Y212.03 E.0367
G1 X180.083 Y204.679 E.74108
G1 X179.917 Y204.679 E.00636
G1 X162.123 Y212.028 E.7408
G1 X161.273 Y212.328 E.03468
G1 X160.522 Y212.519 E.02983
G1 X159.908 Y212.623 E.02394
G1 X159.441 Y212.674 E.01811
G1 X158.818 Y212.703 E.02398
G1 X158.197 Y212.689 E.0239
G1 X157.427 Y212.61 E.02978
G1 X156.816 Y212.499 E.0239
G1 X156.213 Y212.345 E.02394
G1 X155.623 Y212.15 E.02394
G1 X155.046 Y211.914 E.02397
G1 X154.622 Y211.709 E.01812
G1 X154.08 Y211.404 E.02394
G1 X153.437 Y210.973 E.02977
G1 X152.95 Y210.588 E.02391
G1 X152.492 Y210.172 E.02381
G1 X152.065 Y209.726 E.02375
G1 X151.756 Y209.36 E.01842
G1 X151.384 Y208.86 E.02398
G1 X150.971 Y208.205 E.02981
G1 X150.75 Y207.791 E.01805
G1 X150.495 Y207.236 E.0235
G1 X150.223 Y206.499 E.03024
G1 X150.092 Y206.047 E.0181
G1 X149.956 Y205.44 E.02394
G1 X149.846 Y204.676 E.02972
G1 X149.8 Y203.791 E.03407
G1 X149.8 Y165.007 E1.4924
G1 X149.849 Y164.195 E.03127
G1 X149.993 Y163.403 E.03099
G1 X150.268 Y162.534 E.03506
G1 X150.594 Y161.795 E.03106
G1 X151.005 Y161.102 E.03102
G1 X151.497 Y160.463 E.03102
G1 X152.062 Y159.888 E.03102
G1 X152.66 Y159.409 E.02948
G1 X152.931 Y159.747 F16200
G1 F3000
G1 X152.935 Y159.744 E.00022
G1 X153.582 Y159.342 E.0293
G1 X154.091 Y159.094 E.02179
G1 X154.793 Y158.821 E.02896
G1 X155.538 Y158.631 E.02961
G1 X156.28 Y158.534 E.02879
G1 X156.724 Y158.518 E.01708
G1 X203.269 Y158.519 E1.79101
G1 X204.045 Y158.566 E.02991
G1 X204.773 Y158.699 E.02845
G1 X205.479 Y158.915 E.02842
G1 X206.3 Y159.271 E.03444
G1 X206.945 Y159.654 E.02888
G1 X207.542 Y160.115 E.02901
G1 X208.07 Y160.632 E.02841
G1 X208.541 Y161.22 E.02901
G1 X208.949 Y161.878 E.0298
G1 X209.191 Y162.376 E.02129
G1 X209.468 Y163.093 E.02956
G1 X209.654 Y163.823 E.02901
G1 X209.752 Y164.578 E.02927
G1 X209.767 Y165.014 E.01678
G1 X209.757 Y204.153 E1.50603
G1 X209.714 Y204.719 E.02185
G1 X209.654 Y205.156 E.01698
G1 X209.503 Y205.882 E.02854
G1 X209.334 Y206.459 E.02313
G1 X209.183 Y206.877 E.01708
G1 X208.953 Y207.411 E.02242
G1 X208.612 Y208.059 E.02814
G1 X208.288 Y208.572 E.02336
G1 X207.936 Y209.051 E.02288
G1 X207.651 Y209.392 E.01708
G1 X207.249 Y209.818 E.02255
G1 X206.814 Y210.219 E.02277
G1 X206.355 Y210.588 E.02265
G1 X205.734 Y211.009 E.02886
G1 X205.228 Y211.298 E.02242
G1 X204.822 Y211.497 E.0174
G1 X204.282 Y211.723 E.02255
G1 X203.721 Y211.913 E.02277
G1 X203.148 Y212.063 E.02277
G1 X202.57 Y212.172 E.02265
G1 X201.824 Y212.253 E.02886
G1 X201.236 Y212.27 E.02265
G1 X200.651 Y212.246 E.02255
G1 X200.201 Y212.2 E.0174
G1 X199.626 Y212.106 E.02242
G1 X198.902 Y211.928 E.02869
G1 X198.035 Y211.624 E.03535
G1 X180.26 Y204.284 E.73999
G1 X180.07 Y204.246 E.00745
G1 X179.93 Y204.246 E.00538
G1 X179.74 Y204.284 E.00745
G1 X161.971 Y211.622 E.73975
G1 X161.153 Y211.911 E.03338
G1 X160.427 Y212.095 E.02883
G1 X159.852 Y212.193 E.02242
G1 X159.403 Y212.242 E.01739
G1 X158.818 Y212.269 E.02255
G1 X158.229 Y212.256 E.02265
G1 X157.483 Y212.18 E.02887
G1 X156.904 Y212.074 E.02264
G1 X156.331 Y211.928 E.02278
G1 X155.769 Y211.742 E.02277
G1 X155.227 Y211.519 E.02255
G1 X154.82 Y211.322 E.0174
G1 X154.312 Y211.037 E.02242
G1 X153.689 Y210.62 E.02886
G1 X153.227 Y210.254 E.02265
G1 X152.792 Y209.858 E.02265
G1 X152.39 Y209.439 E.02234
G1 X152.098 Y209.094 E.01738
G1 X151.739 Y208.611 E.02316
G1 X151.344 Y207.983 E.02855
G1 X151.136 Y207.595 E.01694
G1 X150.898 Y207.075 E.022
G1 X150.634 Y206.359 E.02937
G1 X150.511 Y205.935 E.01698
G1 X150.383 Y205.367 E.02242
G1 X150.277 Y204.628 E.02873
G1 X150.233 Y203.777 E.03278
G1 X150.234 Y165.016 E1.49149
G1 X150.279 Y164.255 E.02931
G1 X150.413 Y163.516 E.02892
G1 X150.677 Y162.681 E.03369
G1 X150.977 Y162.001 E.02858
G1 X151.361 Y161.352 E.02901
G1 X151.82 Y160.754 E.02901
G1 X152.347 Y160.215 E.02901
G1 X152.9 Y159.772 E.02726
G1 X153.171 Y160.111 F16200
G1 F3000
G1 X153.193 Y160.094 E.00105
G1 X153.786 Y159.725 E.02689
G1 X154.27 Y159.489 E.02071
G1 X154.933 Y159.233 E.02735
G1 X155.613 Y159.059 E.027
G1 X156.31 Y158.967 E.02707
G1 X156.73 Y158.952 E.01615
G1 X203.252 Y158.952 E1.79014
G1 X204.001 Y158.998 E.02886
G1 X204.677 Y159.123 E.02647
G1 X205.336 Y159.325 E.0265
G1 X206.11 Y159.661 E.03249
G1 X206.708 Y160.018 E.02678
G1 X207.263 Y160.448 E.02701
G1 X207.753 Y160.929 E.02643
G1 X208.182 Y161.465 E.02641
G1 X208.572 Y162.094 E.02849
G1 X208.796 Y162.554 E.01969
G1 X209.057 Y163.232 E.02795
G1 X209.228 Y163.913 E.02701
G1 X209.32 Y164.619 E.02742
G1 X209.333 Y165.023 E.01555
G1 X209.324 Y204.141 E1.50521
G1 X209.283 Y204.669 E.02038
G1 X209.228 Y205.078 E.01587
G1 X209.083 Y205.772 E.02728
G1 X208.921 Y206.328 E.0223
G1 X208.779 Y206.721 E.01605
G1 X208.563 Y207.22 E.02092
G1 X208.239 Y207.837 E.02684
G1 X207.927 Y208.331 E.02248
G1 X207.592 Y208.787 E.02175
G1 X207.325 Y209.107 E.01606
G1 X206.947 Y209.507 E.02114
G1 X206.535 Y209.888 E.02161
G1 X206.101 Y210.236 E.02139
G1 X205.5 Y210.643 E.02794
G1 X205.029 Y210.913 E.02091
G1 X204.64 Y211.104 E.01668
G1 X204.124 Y211.319 E.02148
G1 X203.601 Y211.496 E.02127
G1 X203.058 Y211.639 E.02161
G1 X202.512 Y211.742 E.02139
G1 X201.79 Y211.82 E.02794
G1 X201.234 Y211.836 E.02139
G1 X200.685 Y211.814 E.02113
G1 X200.254 Y211.77 E.01668
G1 X199.708 Y211.68 E.0213
G1 X199.02 Y211.51 E.02728
G1 X198.186 Y211.218 E.03399
G1 X180.435 Y203.887 E.73899
G1 X180.162 Y203.823 E.0108
G1 X179.94 Y203.813 E.00853
G1 X179.563 Y203.888 E.01479
G1 X161.819 Y211.216 E.7387
G1 X161.033 Y211.494 E.03208
G1 X160.342 Y211.67 E.02744
G1 X159.797 Y211.763 E.0213
G1 X159.366 Y211.81 E.01667
G1 X158.817 Y211.836 E.02114
G1 X158.261 Y211.823 E.02139
G1 X157.539 Y211.75 E.02795
G1 X156.992 Y211.65 E.02138
G1 X156.448 Y211.51 E.02161
G1 X155.924 Y211.337 E.02126
G1 X155.407 Y211.125 E.02148
G1 X155.017 Y210.936 E.01668
G1 X154.543 Y210.67 E.02091
G1 X153.94 Y210.266 E.02794
G1 X153.504 Y209.921 E.02139
G1 X153.091 Y209.545 E.02149
G1 X152.715 Y209.152 E.02093
G1 X152.44 Y208.827 E.01635
G1 X152.094 Y208.362 E.02234
G1 X151.717 Y207.761 E.02729
G1 X151.523 Y207.398 E.01583
G1 X151.3 Y206.914 E.0205
G1 X151.044 Y206.219 E.0285
G1 X150.93 Y205.824 E.01585
